packages/asc-assets/svg/ExternalLink.svg

<?xml version="1.0" encoding="UTF-8"?>
<svg width="32px" height="32px" viewBox="0 0 32 32" version="1.1" xmlns="http://www.w3.org/2000/svg" xmlns:xlink="http://www.w3.org/1999/xlink">
    <!-- Generator: Sketch 53.1 (72631) - https://sketchapp.com -->
    <title>Icon/32/External-Link   </title>
    <desc>Created with Sketch.</desc>
    <g id="Icon/32/External-Link---" stroke="none" stroke-width="1" fill="none" fill-rule="evenodd">
        <path d="M19.0056332,0 L32.009697,0 L32.009697,12.9918801 L28.0084466,12.9918801 L28.0084466,6.82573392 L14.4342046,20.4172392 L11.60332,17.5990006 L25.1875651,3.99750156 L19.0056332,3.99750156 L19.0056332,0 Z M26.0078214,13.9912555 L26.0178245,32 L0.0096969697,32 L0.0096969697,6.01623985 L17.9853144,6.01623985 L14.0040702,9.9937539 L14.0240765,10.0137414 L4.01094736,10.0137414 L4.01094736,28.0024984 L22.0165741,28.0024984 L22.006571,17.988757 L26.0078214,13.9912555 Z" id="Combined-Shape" fill="#000000"></path>
    </g>
</svg>

<svg viewBox="0 0 32 32"><path d="M19 0h13.01v13h-4V6.82L14.43 20.42 11.6 17.6 25.2 4H19V0zm7 14l.02 18H0V6.02h17.98L14 9.99l.02.02h-10v18h18L22 17.98l4-4z"></path></svg>
